svg/fluentui-system-icons/ic_fluent_window_apps_16_filled.svg

<svg width="16" height="16" viewBox="0 0 16 16" fill="none" xmlns="http://www.w3.org/2000/svg">
<path d="M2 4.5C2 3.11929 3.11929 2 4.5 2H11.5C12.8807 2 14 3.11929 14 4.5V6H3V11.5C3 12.3284 3.67157 13 4.5 13H6V14H4.5C3.11929 14 2 12.8807 2 11.5V4.5ZM12.75 7C11.7835 7 11 7.7835 11 8.75V11H8.75C7.7835 11 7 11.7835 7 12.75V14.25C7 15.2165 7.7835 16 8.75 16H14C15.1046 16 16 15.1046 16 14V8.75C16 7.7835 15.2165 7 14.25 7H12.75ZM11 12V15H8.75C8.33579 15 8 14.6642 8 14.25V12.75C8 12.3358 8.33579 12 8.75 12H11ZM12 15V12H15V14C15 14.5523 14.5523 15 14 15H12ZM12 11V8.75C12 8.33579 12.3358 8 12.75 8H14.25C14.6642 8 15 8.33579 15 8.75V11H12Z" fill="#212121"/>
</svg>

<svg xmlns="http://www.w3.org/2000/svg" width="16" height="16"><path d="M2 4.5A2.5 2.5 0 0 1 4.5 2h7A2.5 2.5 0 0 1 14 4.5V6H3v5.5A1.5 1.5 0 0 0 4.5 13H6v1H4.5A2.5 2.5 0 0 1 2 11.5v-7ZM12.75 7A1.75 1.75 0 0 0 11 8.75V11H8.75A1.75 1.75 0 0 0 7 12.75v1.5c0 .966.784 1.75 1.75 1.75H14a2 2 0 0 0 2-2V8.75A1.75 1.75 0 0 0 14.25 7h-1.5ZM11 12v3H8.75a.75.75 0 0 1-.75-.75v-1.5a.75.75 0 0 1 .75-.75H11Zm1 3v-3h3v2a1 1 0 0 1-1 1h-2Zm0-4V8.75a.75.75 0 0 1 .75-.75h1.5a.75.75 0 0 1 .75.75V11h-3Z"/></svg>
